X: 1402
T: Dulcian Waltz
C:John Spencer, Grafton, NSW (1952 - 2015)
B: australian traditional tunes wiki
M:3/4
L:1/8
R: Waltz
Q: 1/4=100
K:A
V:1 
|:"A"A3G AB|cA3E2|"G"=G4F2|"E"E6|"A"A3G AB|ce3c2|"D"d3cd2|"E"e6|
"A"A3G AB|cA3E2|"G"=G4F2|"E"E4E2|"D"FA3c2|"E"B3AB2|"A"cA3 BA|A6:|
|:e3f ed|c2e2A2|"D"d4c2|"E"B4cd|"A"e3fe2|"G"=g4f2|"E"e3fe2|e4cd|
"A"e3f ed|c2e2A2|"D"d4c2|"E"B4A2|"D"FA3c2|"E"B3AB2|"A"cA2B"D"A2|"A"A6:|
% abcbook-tune_id 6342d53a19812d3060500c3b


% abcbook-boost 0
% abcbook-tablature 
% abcbook-transpose 
% abcbook-lastupdated 1665324363311
% abcbook-soundfonts 
% abcbook-repeats 1
% NFF Book 2020
% Bush Traditions recording played by Carole Helman

